packages/axiom-materials/src/icon_svgs/ring.svg

<svg height="16" viewBox="0 0 16 16" width="16" xmlns="http://www.w3.org/2000/svg"><path d="m8 14c-3.3137085 0-6-2.6862915-6-6s2.6862915-6 6-6 6 2.6862915 6 6-2.6862915 6-6 6zm0-3c1.65685425 0 3-1.34314575 3-3s-1.34314575-3-3-3-3 1.34314575-3 3 1.34314575 3 3 3z" fill-rule="evenodd"/></svg>

<?xml version="1.0" encoding="UTF-8"?>
<svg width="16px" height="16px" viewBox="0 0 16 16" version="1.1" xmlns="http://www.w3.org/2000/svg" xmlns:xlink="http://www.w3.org/1999/xlink">
    <!-- Generator: sketchtool 43.2 (39069) - http://www.bohemiancoding.com/sketch -->
    <title>ring</title>
    <desc>Created with sketchtool.</desc>
    <defs></defs>
    <g id="Page-1" stroke="none" stroke-width="1" fill="none" fill-rule="evenodd">
        <g id="ring" fill="#000000">
            <path d="M8,14 C4.6862915,14 2,11.3137085 2,8 C2,4.6862915 4.6862915,2 8,2 C11.3137085,2 14,4.6862915 14,8 C14,11.3137085 11.3137085,14 8,14 Z M8,11 C9.65685425,11 11,9.65685425 11,8 C11,6.34314575 9.65685425,5 8,5 C6.34314575,5 5,6.34314575 5,8 C5,9.65685425 6.34314575,11 8,11 Z" id="Ring"></path>
        </g>
    </g>
</svg>
